brandFactory_export/1.Light/Carrito de la compra_1Light.svg

<?xml version="1.0" encoding="UTF-8"?>
<svg width="24px" height="24px" viewBox="0 0 24 24" version="1.1" xmlns="http://www.w3.org/2000/svg" xmlns:xlink="http://www.w3.org/1999/xlink">
    <title>1.Light/Carrito de la compra_1Light</title>
    <g id="Symbols" stroke="none" stroke-width="1" fill="none" fill-rule="evenodd">
        <g id="1.Light/Carrito-de-la-compra_1Light" fill="#5CB615" fill-rule="nonzero">
            <path d="M18.0336134,17.7142857 L10.1680672,17.7142857 C9.25042017,17.7142857 8.43697479,17.4084034 7.82184874,16.8268908 C7.16638655,16.2084034 6.74285714,15.3109244 6.55798319,14.1546218 C6.45378151,13.4857143 5.79831933,9.53277311 5.26722689,6.36302521 C5.25042017,6.32268908 5.24369748,6.2789916 5.24369748,6.23529412 L5.24369748,6.21512605 C4.92773109,4.33277311 4.66554622,2.75966387 4.59159664,2.35966387 C4.50756303,1.89579832 4.23529412,1.47226891 3.82521008,1.16302521 C3.40504202,0.847058824 2.86386555,0.672268908 2.30252101,0.672268908 L0.336134454,0.672268908 C0.151260504,0.672268908 0,0.521008403 0,0.336134454 C0,0.151260504 0.151260504,0 0.336134454,0 L2.30252101,0 C3.00840336,0 3.69411765,0.221848739 4.23193277,0.628571429 C4.77983193,1.03865546 5.14285714,1.61344538 5.25378151,2.24201681 C5.3210084,2.62521008 5.57310924,4.10756303 5.87226891,5.89915966 L23.2773109,5.89915966 C23.4621849,5.89915966 23.6134454,6.05042017 23.6134454,6.23529412 C23.6134454,6.26218487 23.610084,6.29243697 23.6033613,6.31932773 C23.4184874,7.05210084 23.0689076,8.4605042 22.6957983,9.95294118 C22.2453782,11.7680672 21.7781513,13.6436975 21.6369748,14.1882353 C21.3344538,15.3579832 20.897479,16.2151261 20.3092437,16.8067227 C19.7008403,17.4084034 18.9378151,17.7142857 18.0336134,17.7142857 Z M5.98655462,6.57142857 C6.50420168,9.68403361 7.12268908,13.4016807 7.22352941,14.0470588 C7.52605042,15.9764706 8.57142857,17.0420168 10.1680672,17.0420168 L18.0336134,17.0420168 C18.7630252,17.0420168 19.3512605,16.8067227 19.8319328,16.3260504 C20.3294118,15.8285714 20.7159664,15.0521008 20.9848739,14.0168067 C21.1260504,13.4756303 21.589916,11.6 22.0436975,9.78823529 C22.3529412,8.54453782 22.6487395,7.35462185 22.8470588,6.57142857 L5.98655462,6.57142857 Z M10.1680672,23.6134454 C9.12268908,23.6134454 8.5210084,23.0117647 8.5210084,21.9663866 C8.5210084,20.9210084 9.12268908,20.3193277 10.1680672,20.3193277 C11.2134454,20.3193277 11.8151261,20.9210084 11.8151261,21.9663866 C11.8151261,23.0117647 11.2134454,23.6134454 10.1680672,23.6134454 Z M10.1680672,20.9915966 C9.49243697,20.9915966 9.19327731,21.2907563 9.19327731,21.9663866 C9.19327731,22.6420168 9.49243697,22.9411765 10.1680672,22.9411765 C10.8436975,22.9411765 11.1428571,22.6420168 11.1428571,21.9663866 C11.1428571,21.2907563 10.8436975,20.9915966 10.1680672,20.9915966 Z M16.7226891,23.6134454 C15.6773109,23.6134454 15.0756303,23.0117647 15.0756303,21.9663866 C15.0756303,20.9210084 15.6773109,20.3193277 16.7226891,20.3193277 C17.7680672,20.3193277 18.3697479,20.9210084 18.3697479,21.9663866 C18.3697479,23.0117647 17.7680672,23.6134454 16.7226891,23.6134454 Z M16.7226891,20.9915966 C16.0470588,20.9915966 15.7478992,21.2907563 15.7478992,21.9663866 C15.7478992,22.6420168 16.0470588,22.9411765 16.7226891,22.9411765 C17.3983193,22.9411765 17.697479,22.6420168 17.697479,21.9663866 C17.697479,21.2907563 17.3983193,20.9915966 16.7226891,20.9915966 Z" id="Carrito-de-la-compra_1Light"></path>
        </g>
    </g>
</svg>

<svg width="24" height="24" viewBox="0 0 24 24" xmlns="http://www.w3.org/2000/svg"><path d="M18.034 17.714h-7.866c-.918 0-1.731-.306-2.346-.887-.656-.619-1.08-1.516-1.264-2.672-.104-.67-.76-4.622-1.29-7.792a.331.331 0 01-.024-.128v-.02c-.316-1.882-.578-3.455-.652-3.855-.084-.464-.357-.888-.767-1.197a2.544 2.544 0 00-1.522-.49H.336A.337.337 0 010 .335C0 .151.151 0 .336 0h1.967a3.21 3.21 0 011.929.629c.548.41.91.984 1.022 1.613.067.383.32 1.866.618 3.657h17.405a.337.337 0 01.326.42c-.185.733-.534 2.142-.907 3.634-.45 1.815-.918 3.69-1.059 4.235-.303 1.17-.74 2.027-1.328 2.619-.608.601-1.371.907-2.275.907zM5.987 6.571c.517 3.113 1.136 6.83 1.237 7.476.302 1.93 1.347 2.995 2.944 2.995h7.866c.729 0 1.317-.235 1.798-.716.497-.497.884-1.274 1.153-2.31.141-.54.605-2.416 1.059-4.228.309-1.243.605-2.433.803-3.217H5.987zm4.181 17.042c-1.045 0-1.647-.601-1.647-1.647 0-1.045.602-1.647 1.647-1.647s1.647.602 1.647 1.647c0 1.046-.602 1.647-1.647 1.647zm0-2.621c-.676 0-.975.299-.975.974 0 .676.3.975.975.975.676 0 .975-.299.975-.975 0-.675-.3-.974-.975-.974zm6.555 2.621c-1.046 0-1.647-.601-1.647-1.647 0-1.045.601-1.647 1.647-1.647 1.045 0 1.647.602 1.647 1.647 0 1.046-.602 1.647-1.647 1.647zm0-2.621c-.676 0-.975.299-.975.974 0 .676.3.975.975.975s.974-.299.974-.975c0-.675-.299-.974-.974-.974z" fill="#5CB615" fill-rule="nonzero"/></svg>
